X:1
T:Jesus, Help Me
T:Henry Tucker
T:Jesus, Help Me
T:Public Domain
T:Public Domain
C:Henry Tucker
Z:Public Domain
%%score ( 1 2 ) ( 3 4 )
L:1/8
M:2/4
K:Ab
V:1 treble 
V:2 treble 
V:3 bass 
V:4 bass 
V:1
 [Ec]2 (B>A) | [DF]2 [CE]2 | [DF]2 (Ac) | [Ec]2 [EB]2 | [Ec]2 (B>A) | [DF]2 [CE]2 | %6
w: 1.~Je- sus, *|me, I|am wear- *|Let me|hold Thy *|in mine;|
w: 2.~Je- sus, *|me, I|am faint- *|’Neath the|de- sert’s *|ing sky;|
w: 3.~Je- sus, *|me, I|am sink- *|In the|cold and *|y wave;|
 ([DF]<[FA]) ([EA][DB]) | [CA]4 | [Ec]2 (B>A) | [DF]2 [CE]2 | [DF]2 (Ac) | [Ec]2 [EB]2 | %12
w: For * the *|stream|of liv- *|wa- ter,|In a *|y land|
w: Lead * to *|past-|ures cool *|frag- rant,|There my *|ery want|
w: Give * me *|strength,|my faith *|creas- ing,|Thou a- *|hast power|
 [Ec]2 (B>A) | [DF]2 [CE]2 | ([DF]<[FA]) ([EA][DB]) | [CA]4 | [Ed]2 (e>d) | ([Ec]>[DB]) [CA]2 | %18
w: I pine; *|my Fa-|ther, * do *|not|leave me, *|this * dark|
w: sup- ply; *|me with|Thy * wings *|e-|ter- nal, *|me * feel|
w: to save. *|my soul|be * filled *|with|rap- ture, *|my * hope|
 [Ed]2 (e>d) | ([Ec]>[DB]) [CA]2 | [Ec]3 [EB] | [EA]3 [DG] | [CA]2 (Bc) | [EB]4 | [Ec]2 (B>A) | %25
w: and dread- *|hour, * Fold|me in|Thy arms|of mer- *|Keep|me from *|
w: Thee ev- *|near; * Thou|canst whis-|per words|of com- *|Thou|canst dry *|
w: be stayed *|Thee, * Let|me bear|my cross|with pa- *|Till|I sleep *|
 [DF]2 [CE]2 | [DF]2 (Ac) | [Ec]2 [EB]2 | [Ec]2 (B>A) | [DF]2 [CE]2 | ([DF]<[FA]) ([EA][DB]) | %31
w: tempt- er’s|pow’r. * *|||||
w: fall- ing|tear. * *|||||
w: wake with|Thee. * *|||||
 [CA]4 |] %32
w: |
w: |
w: |
V:2
 x2 D2 | x4 | x2 E2 | x4 | x2 D2 | x4 | x4 | x4 | x2 D2 | x4 | x2 E2 | x4 | x2 D2 | x4 | x4 | x4 | %16
w: help||y,||hand||||ing||thirst-||O||||
w: help||ing,||burn-||||and||ev-||Shade||||
w: help||ing,||chill-||||in-||lone||Let||||
 x2 E2 | x4 | x2 E2 | x4 | x4 | x4 | x2 =D2 | x4 | x2 D2 | x4 | x2 E2 | x4 | x2 D2 | x4 | x4 | %31
w: In||ful||||cy,||the|||||||
w: Let||er||||fort,||the|||||||
w: Let||in||||tience,||and|||||||
 x4 |] %32
w: |
w: |
w: |
V:3
 [A,,E,]2 [A,,F,]2 | [A,,A,]2 [A,,A,]2 | [D,A,]2 (C,A,,) | [E,A,]2 [E,G,]2 | (A,E,) [A,,F,]2 | %5
 [A,,A,]2 [A,,A,]2 | [D,A,]2 (CG,) | [A,,A,]4 | [A,,E,]2 [A,,F,]2 | [A,,A,]2 [A,,A,]2 | %10
 [D,A,]2 (C,A,,) | [E,A,]2 [E,G,]2 | (A,E,) [A,,F,]2 | [A,,A,]2 [A,,A,]2 | [D,A,]2 (CG,) | %15
 [A,,A,]4 | [E,B,]2 (C>B,) | [A,,A,]2 [A,,A,]2 | [E,B,]2 (C>B,) | [A,,A,]2 [A,,E,]2 | %20
 [A,,A,]3 [A,,G,] | [C,A,]3 [E,B,] | [F,A,]2 [B,,A,]2 | [E,G,]4 | [A,,E,]2 [A,,F,]2 | %25
 [A,,A,]2 [A,,A,]2 | [D,A,]2 (C,A,,) | [E,A,]2 [E,G,]2 | (A,E,) [A,,F,]2 | [A,,A,]2 [A,,A,]2 | %30
 [D,A,]2 (CG,) | [A,,A,]4 |] %32
V:4
 x4 | x4 | x2 A,2 | x4 | A,,2 x2 | x4 | x2 E,2 | x4 | x4 | x4 | x2 A,2 | x4 | A,,2 x2 | x4 | %14
 x2 E,2 | x4 | x2 E,2 | x4 | x2 E,2 | x4 | x4 | x4 | x4 | x4 | x4 | x4 | x2 A,2 | x4 | A,,2 x2 | %29
 x4 | x2 E,2 | x4 |] %32

